src/Assets/Icons/HomeScreen/DataManagementComponent/titleIcon5.svg

<svg width="84" height="68" viewBox="0 0 84 68" fill="none" xmlns="http://www.w3.org/2000/svg">
<path d="M30.1806 2.23453C22.0169 0.578175 12.4925 8.10077 8.75075 12.0691C10.1114 10.8412 11.8122 9.53612 7.73028 14.1396C2.62792 19.8939 1.60745 37.432 2.11769 45.7138C2.62792 53.9955 18.4452 65.9006 32.2216 66.4182C45.9979 66.9358 64.8766 72.6295 75.5916 58.654C86.3065 44.6786 74.5711 30.7031 70.9995 30.1855C67.4278 29.6679 66.4073 27.5974 58.2436 16.7276C50.0798 5.85781 40.3853 4.30497 30.1806 2.23453Z" fill="#0000FF"/>
<path d="M66.8306 23.9606C62.5294 10.0847 49.5296 0 34.1769 0C15.2971 0 0 15.2202 0 33.995C0 52.7697 15.2971 68 34.1769 68H61.5528C73.9504 68 84 58.0009 84 45.6656C84 35.1429 76.6829 26.3119 66.8306 23.9606ZM43.6496 45.0161C40.0012 48.4499 36.4186 51.8735 32.9118 55.2771C31.1205 54.2046 19.5376 42.9116 19.1176 41.9046C19.7349 41.0538 23.94 36.6382 25.1241 35.7269C27.6188 38.2242 30.1186 40.7164 32.6133 43.2137C35.1434 40.8775 37.6937 38.491 40.2542 36.0492C44.4036 32.0918 48.4063 28.1546 52.2672 24.2476C54.4026 26.5586 56.533 28.8695 58.6684 31.1805C53.6993 35.6615 48.6947 40.2683 43.6547 45.0111L43.6496 45.0161Z" fill="white"/>
</svg>

<svg xmlns="http://www.w3.org/2000/svg" width="84" height="68" fill="none"><path fill="#00F" d="M30.18 2.235C22.018.578 12.494 8.1 8.75 12.069c1.361-1.228 3.062-2.533-1.02 2.07-5.102 5.755-6.123 23.293-5.612 31.575.51 8.282 16.327 20.187 30.104 20.704 13.776.518 32.655 6.211 43.37-7.764s-1.02-27.95-4.593-28.469c-3.571-.517-4.592-2.588-12.755-13.457S40.385 4.305 30.18 2.235"/><path fill="#fff" d="M66.83 23.96C62.53 10.086 49.53 0 34.178 0 15.297 0 0 15.22 0 33.995S15.297 68 34.177 68h27.376C73.95 68 84 58 84 45.666c0-10.523-7.317-19.354-17.17-21.705M43.65 45.017a968 968 0 0 0-10.738 10.261c-1.791-1.072-13.374-12.365-13.794-13.372.617-.851 4.822-5.267 6.006-6.178 2.495 2.497 4.995 4.99 7.49 7.487 2.53-2.337 5.08-4.723 7.64-7.165a569 569 0 0 0 12.013-11.801c2.136 2.31 4.266 4.621 6.401 6.932a961 961 0 0 0-15.013 13.831z"/></svg>
